material/.icons/material/cards-variant.svg

<svg xmlns="http://www.w3.org/2000/svg" viewBox="0 0 24 24"><path d="M5 2h14a1 1 0 011 1v10a1 1 0 01-1 1H5a1 1 0 01-1-1V3a1 1 0 011-1m1 2v8h12V4H6m14 13a1 1 0 01-1 1H5a1 1 0 01-1-1v-1h16v1m0 4a1 1 0 01-1 1H5a1 1 0 01-1-1v-1h16v1z"/></svg>

<?xml version="1.0" encoding="UTF-8"?><!DOCTYPE svg PUBLIC "-//W3C//DTD SVG 1.1//EN" "http://www.w3.org/Graphics/SVG/1.1/DTD/svg11.dtd"><svg xmlns="http://www.w3.org/2000/svg" xmlns:xlink="http://www.w3.org/1999/xlink" version="1.1" id="mdi-cards-variant" width="24" height="24" viewBox="0 0 24 24"><path d="M5,2H19A1,1 0 0,1 20,3V13A1,1 0 0,1 19,14H5A1,1 0 0,1 4,13V3A1,1 0 0,1 5,2M6,4V12H18V4H6M20,17A1,1 0 0,1 19,18H5A1,1 0 0,1 4,17V16H20V17M20,21A1,1 0 0,1 19,22H5A1,1 0 0,1 4,21V20H20V21Z" /></svg>
